X: 21203
T: Les SOUVENIRS QUADRILLES No. 2. L'Et\`e.
N: The accent is wrong in the title.
P: Pens\'ee
%R: march, reel
B: W. Hamilton "Universal Tune-Book" Vol. 2 Glasgow 1846 p.120 #3
S: http://s3-eu-west-1.amazonaws.com/itma.dl.printmaterial/book_pdfs/hamiltonvol2web.pdf
Z: 2016 John Chambers <jc:trillian.mit.edu>
M: 2/4
L: 1/16
K: D
% - - - - - - - - - - - - - - - - - - - - - - - - -
[|\
"_>"[d4A4] ABAG | F2A2d2f2 | e2g2 (A2Bc) | d2b2 a4 |\
[d4F4] ABAG | F2A2d2f2 | e2ge cABc | d2f2d2z2 |]\
"^>"[e4c4] f2e2 | ^d2e2 .[a4c4] | "^>"[e4c4] f2e2 | e2d2 .[B4G4] |
"^>"d4 e2d2 | c2d2 .b4 | b2a2g2f2 | Tf4 e2z2 |\
"^>"[e4c4] f2e2 | ^d2e2 .a4 | "^>"[e4c4] f2e2 | e2d2 .[B4G4] |\
"^>"d4 e2d2 | c2d2 b4 | a2g2f2g2 | a2AAA2"^D.C."A2 |]
% - - - - - - - - - - - - - - - - - - - - - - - - -

%%sep 1 1 500
%%sep 1 1 500

